lib/brands/icons/jcb.svg

<svg xmlns="http://www.w3.org/2000/svg" fill="none" aria-hidden="true" viewBox="0 0 48 48"><g id="jcb-Icon"><g id="Group"><path id="Vector" fill="white" d="M44 33.1931C44 36.6161 41.2127 39.4034 37.7897 39.4034H4V14.8068C4 11.3839 6.78729 8.59657 10.2103 8.59657H44V33.1931Z"/><path id="Vector_2" fill="url(#paint0_linear_94_16773)" d="M32.9971 26.8851H35.5643C35.6377 26.8851 35.8088 26.8606 35.8822 26.8606C36.3712 26.7628 36.7868 26.3227 36.7868 25.7115C36.7868 25.1247 36.3712 24.6846 35.8822 24.5624C35.8088 24.5379 35.6621 24.5379 35.5643 24.5379H32.9971V26.8851Z"/><path id="Vector_3" fill="url(#paint1_linear_94_16773)" d="M35.2712 10.6748C32.8262 10.6748 30.8213 12.6552 30.8213 15.1247V19.7457H37.1049C37.2516 19.7457 37.4228 19.7457 37.545 19.7702C38.9631 19.8435 40.0145 20.577 40.0145 21.8484C40.0145 22.8508 39.3054 23.7066 37.9851 23.8777V23.9266C39.4277 24.0244 40.5279 24.8313 40.5279 26.0782C40.5279 27.423 39.3054 28.3032 37.6917 28.3032H30.7969V37.3496H37.325C39.77 37.3496 41.7749 35.3692 41.7749 32.8997V10.6748H35.2712Z"/><path id="Vector_4" fill="url(#paint2_linear_94_16773)" d="M36.469 22.1418C36.469 21.555 36.0533 21.1638 35.5643 21.0905C35.5154 21.0905 35.3932 21.066 35.3198 21.066H32.9971V23.2176H35.3198C35.3932 23.2176 35.5399 23.2176 35.5643 23.1931C36.0533 23.1198 36.469 22.7286 36.469 22.1418Z"/><path id="Vector_5" fill="url(#paint3_linear_94_16773)" d="M10.6745 10.6748C8.22954 10.6748 6.22465 12.6552 6.22465 15.1247V26.1027C7.47159 26.7139 8.76743 27.1051 10.0633 27.1051C11.6036 27.1051 12.4349 26.176 12.4349 24.9046V19.7213H16.2491V24.8802C16.2491 26.8851 15.0022 28.5232 10.7723 28.5232C8.20508 28.5232 6.2002 27.9609 6.2002 27.9609V37.3252H12.7283C15.1733 37.3252 17.1782 35.3447 17.1782 32.8753V10.6748H10.6745Z"/><path id="Vector_6" fill="url(#paint4_linear_94_16773)" d="M22.9733 10.6748C20.5283 10.6748 18.5234 12.6552 18.5234 15.1247V20.9438C19.6481 19.9902 21.6041 19.379 24.7582 19.5257C26.4452 19.599 28.2545 20.0636 28.2545 20.0636V21.9462C27.3498 21.4817 26.274 21.066 24.8804 20.9682C22.4843 20.7971 21.0418 21.9706 21.0418 24.0244C21.0418 26.1027 22.4843 27.2763 24.8804 27.0807C26.274 26.9829 27.3498 26.5428 28.2545 26.1027V27.9853C28.2545 27.9853 26.4696 28.4499 24.7582 28.5232C21.6041 28.6699 19.6481 28.0587 18.5234 27.1051V37.3741H25.0516C27.4965 37.3741 29.5014 35.3936 29.5014 32.9242V10.6748H22.9733Z"/></g></g><defs><linearGradient id="paint0_linear_94_16773" x1="30.8169" x2="41.8041" y1="25.7144" y2="25.7144" gradientUnits="userSpaceOnUse"><stop stop-color="#007940"/><stop offset="0.2285" stop-color="#00873F"/><stop offset="0.7433" stop-color="#40A737"/><stop offset="1" stop-color="#5CB531"/></linearGradient><linearGradient id="paint1_linear_94_16773" x1="30.8169" x2="41.8049" y1="24.0015" y2="24.0015" gradientUnits="userSpaceOnUse"><stop stop-color="#007940"/><stop offset="0.2285" stop-color="#00873F"/><stop offset="0.7433" stop-color="#40A737"/><stop offset="1" stop-color="#5CB531"/></linearGradient><linearGradient id="paint2_linear_94_16773" x1="30.8167" x2="41.8042" y1="22.1387" y2="22.1387" gradientUnits="userSpaceOnUse"><stop stop-color="#007940"/><stop offset="0.2285" stop-color="#00873F"/><stop offset="0.7433" stop-color="#40A737"/><stop offset="1" stop-color="#5CB531"/></linearGradient><linearGradient id="paint3_linear_94_16773" x1="6.21947" x2="17.3767" y1="24.0015" y2="24.0015" gradientUnits="userSpaceOnUse"><stop stop-color="#1F286F"/><stop offset="0.4751" stop-color="#004E94"/><stop offset="0.8261" stop-color="#0066B1"/><stop offset="1" stop-color="#006FBC"/></linearGradient><linearGradient id="paint4_linear_94_16773" x1="18.4602" x2="29.2965" y1="24.0015" y2="24.0015" gradientUnits="userSpaceOnUse"><stop stop-color="#6C2C2F"/><stop offset="0.1735" stop-color="#882730"/><stop offset="0.5731" stop-color="#BE1833"/><stop offset="0.8585" stop-color="#DC0436"/><stop offset="1" stop-color="#E60039"/></linearGradient></defs></svg>

<svg xmlns="http://www.w3.org/2000/svg" fill="none" aria-hidden="true" viewBox="0 0 48 48"><path fill="#fff" d="M44 33.193a6.22 6.22 0 0 1-6.21 6.21H4V14.807a6.22 6.22 0 0 1 6.21-6.21H44v24.596Z"/><path fill="url(#a)" d="M32.998 26.885h2.567c.073 0 .244-.024.318-.024.489-.098.904-.538.904-1.15 0-.586-.415-1.026-.904-1.149-.074-.024-.22-.024-.318-.024h-2.567v2.347Z"/><path fill="url(#b)" d="M35.271 10.675a4.45 4.45 0 0 0-4.45 4.45v4.62h6.284c.147 0 .318 0 .44.025 1.418.073 2.47.807 2.47 2.078 0 1.003-.71 1.859-2.03 2.03v.049c1.443.098 2.543.904 2.543 2.151 0 1.345-1.222 2.225-2.836 2.225h-6.895v9.047h6.528a4.45 4.45 0 0 0 4.45-4.45V10.675h-6.504Z"/><path fill="url(#c)" d="M36.47 22.142a1.04 1.04 0 0 0-.905-1.052c-.05 0-.171-.024-.245-.024h-2.322v2.152h2.322c.074 0 .22 0 .245-.025a1.04 1.04 0 0 0 .904-1.051Z"/><path fill="url(#d)" d="M10.675 10.675a4.45 4.45 0 0 0-4.45 4.45v10.978c1.247.611 2.543 1.002 3.838 1.002 1.54 0 2.372-.929 2.372-2.2V19.72h3.814v5.16c0 2.004-1.247 3.642-5.476 3.642-2.568 0-4.573-.562-4.573-.562v9.364h6.529a4.45 4.45 0 0 0 4.45-4.45v-22.2h-6.504Z"/><path fill="url(#e)" d="M22.973 10.675a4.45 4.45 0 0 0-4.45 4.45v5.819c1.125-.954 3.08-1.565 6.235-1.418 1.687.073 3.496.538 3.496.538v1.882c-.904-.464-1.98-.88-3.374-.978-2.396-.17-3.838 1.003-3.838 3.056 0 2.079 1.442 3.252 3.838 3.057 1.394-.098 2.47-.538 3.374-.978v1.882s-1.785.465-3.496.538c-3.154.147-5.11-.464-6.235-1.418v10.27h6.528a4.45 4.45 0 0 0 4.45-4.45v-22.25h-6.528Z"/><defs><linearGradient id="a" x1="30.817" x2="41.805" y1="25.714" y2="25.714" gradientUnits="userSpaceOnUse"><stop stop-color="#007940"/><stop offset=".229" stop-color="#00873F"/><stop offset=".743" stop-color="#40A737"/><stop offset="1" stop-color="#5CB531"/></linearGradient><linearGradient id="b" x1="30.817" x2="41.805" y1="24.002" y2="24.002" gradientUnits="userSpaceOnUse"><stop stop-color="#007940"/><stop offset=".229" stop-color="#00873F"/><stop offset=".743" stop-color="#40A737"/><stop offset="1" stop-color="#5CB531"/></linearGradient><linearGradient id="c" x1="30.817" x2="41.805" y1="22.139" y2="22.139" gradientUnits="userSpaceOnUse"><stop stop-color="#007940"/><stop offset=".229" stop-color="#00873F"/><stop offset=".743" stop-color="#40A737"/><stop offset="1" stop-color="#5CB531"/></linearGradient><linearGradient id="d" x1="6.22" x2="17.377" y1="24.002" y2="24.002" gradientUnits="userSpaceOnUse"><stop stop-color="#1F286F"/><stop offset=".475" stop-color="#004E94"/><stop offset=".826" stop-color="#0066B1"/><stop offset="1" stop-color="#006FBC"/></linearGradient><linearGradient id="e" x1="18.46" x2="29.296" y1="24.002" y2="24.002" gradientUnits="userSpaceOnUse"><stop stop-color="#6C2C2F"/><stop offset=".173" stop-color="#882730"/><stop offset=".573" stop-color="#BE1833"/><stop offset=".859" stop-color="#DC0436"/><stop offset="1" stop-color="#E60039"/></linearGradient></defs></svg>
